!!!OTL: EIN JAEGER AUS KURPFALZ
!!!ARE: Europa, Mitteleuropa, Deutschland
!!!SCT: E1454
!!!YEM: Copyright 1995, estate of Helmut Schaffrath.
**kern
*ICvox
*Ivox
*M2/4
*k[f#]
*G:
{8d
=1
8g
8b
8b
8b
=2
4.b}
{8dd
=3
8dd
8cc
8cc
8b
=4
8b
8a
8a}
{8g
=5
8f#
8a
8a
8a
=6
4.a}
{8dd
=7
8b
8b
8a
8a
=8
4g
8r}
{8dd
=9
4.dd
8cc
=10
4.b}
{8dd
=11
8gg
8dd
8dd
8b
=12
8b
8a
8a}
{8g
=13
8f#
8a
8a
8a
=14
4.a}
{8dd
=15
8b
8b
8a
8a
=16
4g
8r}
==
!!!AGN: Staende -, Jaeger - Lied
!!!ONB: ESAC (Essen Associative Code) Database: ERK3
!!!AMT: simple duple
!!!AIN: vox
!!!EED: Helmut Schaffrath
!!!EEV: 1.0
*-
